X:1
T:Title
%%score { 1 | 2 }
L:1/8
M:3/4
K:F
V:1 treble nm="Grand Piano"
V:2 bass 
V:1
 z2 z[Q:1/4=100] C FG | A3 [EG] Ad | c3 [Fc] [Fc][CFc] | [FAc]3 [EGB] [CEG][B,EG] | F3 C FG | %5
 A3 [EG] Ad | c3 [CAc] [CAc][Ac] | [CAc]3 [EGB] [CFA][B,EG] |[M:2/4] F4 |[M:1/4] FF | %10
[M:3/4] E2 C2 [EB][EB] | [FA]2 [CF]2 [Ac][Ac] | [Ac]2 [Ac][CFA] [CGB][EBd] | [Ac]4 [Ac][Ac] | %14
 [Gc]2 [EG]2 [Ec][Ec] | c2 AC FA | c3 A [EG][Ec] |[M:3/8] [A,CF]3 |] %18
V:2
 z2 z [F,A,] [F,A,C][F,B,E] | [F,CF]3 [C,C] [F,CF][F,B,F] | [F,A,F]3 [C,A,] [F,A,]A, | C3 C, C,C, | %4
 [F,A,C]3 [F,A,] [F,A,C][F,B,E] | [F,CF]3 [C,C] [F,CF][F,B,F] | [F,A,F]3 F, A,C | F,3 C, C,C, | %8
[M:2/4] [F,A,C]4 |[M:1/4] [F,A,C][F,A,C] |[M:3/4] [C,G,C]2 [C,E,]2 [C,C][C,C] | %11
 [F,C]2 [F,A,]2 [F,F][F,F] | [F,F]2 [F,F]F, C,C, | [F,F]4 [F,F][F,F] | [F,D]2 [C,C]2 [C,B,][C,B,] | %15
 [F,A,F]2 [F,CF]C, F,A, | [F,A,F]3 [F,CF] [C,C][C,B,] |[M:3/8] [F,,F,]3 |] %18

